inst/app/www/img/forma-Superior-derecho.svg

<svg id="Capa_1" data-name="Capa 1" xmlns="http://www.w3.org/2000/svg" viewBox="0 0 222 496">
    <defs>
        <style>
            .cls-1 {
                fill: #e5e5e5;
            }

            .cls-1,
            .cls-2 {
                fill-rule: evenodd;
            }

            .cls-2 {
                /* DEFAULT */
                fill: #323a49;
                /* MORENA */
                fill: #cc3a00;
                /* MOVCIUDADANO */
                fill: #cc9600;
                /* PAN */
                fill: #4159af;
                /* PRD */
                fill: #cc9600;
                /* PRI */
                fill: #cc3a00;
            }
        </style>
    </defs>
    <title>forma-Superior-derecho</title>
    <g id="Capa_1-2" data-name="Capa 1-2">
        <g id="forma-Superior-derecho">
            <path class="cls-1"
                d="M222,0H0V206.58a55.55,55.55,0,0,0,55.5,55.58A55.55,55.55,0,0,1,111,317.74h0v67.1A111.08,111.08,0,0,0,222,496h0Z"
                transform="translate(0)" />
            <path class="cls-2"
                d="M136.81,181.32a3.16,3.16,0,1,0-3.18-3.16,3.15,3.15,0,0,0,3.18,3.16Zm-20.94,0a3.16,3.16,0,1,0-3.19-3.16,3.15,3.15,0,0,0,3.19,3.16Zm-20.94,0a3.16,3.16,0,1,0-3.19-3.16,3.15,3.15,0,0,0,3.19,3.16Zm-21.86,0a3.16,3.16,0,1,0-3.18-3.16,3.15,3.15,0,0,0,3.18,3.16Zm-20.94,0a3.16,3.16,0,1,0-3.19-3.16,3.15,3.15,0,0,0,3.19,3.16Zm-20.94,0A3.16,3.16,0,1,0,28,178.16a3.15,3.15,0,0,0,3.19,3.16Zm84.68,22.14a3.16,3.16,0,1,0-3.19-3.16,3.15,3.15,0,0,0,3.19,3.16Zm-42.8,0a3.16,3.16,0,1,0-3.18-3.16A3.15,3.15,0,0,0,73.07,203.46Zm63.74,0a3.16,3.16,0,1,0-3.18-3.16A3.15,3.15,0,0,0,136.81,203.46Zm-84.68,0a3.16,3.16,0,1,0-3.19-3.16A3.15,3.15,0,0,0,52.13,203.46Zm42.8,0a3.16,3.16,0,1,0-3.19-3.16,3.15,3.15,0,0,0,3.19,3.16Zm-63.74,0A3.16,3.16,0,1,0,28,200.3a3.15,3.15,0,0,0,3.19,3.16Zm105.62,22.13a3.16,3.16,0,1,0-3.18-3.16,3.15,3.15,0,0,0,3.18,3.16Zm-20.94,0a3.16,3.16,0,1,0-3.19-3.16,3.15,3.15,0,0,0,3.19,3.16Zm-20.94,0a3.16,3.16,0,1,0-3.19-3.16,3.15,3.15,0,0,0,3.19,3.16Zm-21.86,0a3.16,3.16,0,1,0-3.18-3.16,3.15,3.15,0,0,0,3.18,3.16Zm-20.94,0a3.16,3.16,0,1,0-3.19-3.16,3.15,3.15,0,0,0,3.19,3.16Zm-20.94,0A3.16,3.16,0,1,0,28,222.43a3.15,3.15,0,0,0,3.19,3.16Zm105.62,22.14a3.16,3.16,0,1,0-3.18-3.16,3.15,3.15,0,0,0,3.18,3.16Zm-20.94,0a3.16,3.16,0,1,0-3.19-3.16,3.15,3.15,0,0,0,3.19,3.16Zm-20.94,0a3.16,3.16,0,1,0-3.19-3.16,3.15,3.15,0,0,0,3.19,3.16Zm-21.86,0a3.16,3.16,0,1,0-3.18-3.16,3.15,3.15,0,0,0,3.18,3.16Zm-20.94,0a3.16,3.16,0,1,0-3.19-3.16,3.15,3.15,0,0,0,3.19,3.16Zm-20.94,0A3.16,3.16,0,1,0,28,244.57a3.15,3.15,0,0,0,3.19,3.16Zm105.62,22.13a3.16,3.16,0,1,0-3.18-3.16,3.15,3.15,0,0,0,3.18,3.16Zm-20.94,0a3.16,3.16,0,1,0-3.19-3.16,3.15,3.15,0,0,0,3.19,3.16Zm-20.94,0a3.16,3.16,0,1,0-3.19-3.16,3.15,3.15,0,0,0,3.19,3.16Zm-21.86,0a3.16,3.16,0,1,0-3.18-3.16,3.15,3.15,0,0,0,3.18,3.16Zm-20.94,0a3.16,3.16,0,1,0-3.19-3.16,3.15,3.15,0,0,0,3.19,3.16Zm-20.94,0A3.16,3.16,0,1,0,28,266.7a3.15,3.15,0,0,0,3.19,3.16ZM73.07,292a3.16,3.16,0,1,0-3.18-3.16A3.15,3.15,0,0,0,73.07,292Zm63.74,0a3.16,3.16,0,1,0-3.18-3.16A3.15,3.15,0,0,0,136.81,292Zm-41.88,0a3.16,3.16,0,1,0-3.19-3.16A3.15,3.15,0,0,0,94.93,292Zm-42.8,0a3.16,3.16,0,1,0-3.19-3.16A3.15,3.15,0,0,0,52.13,292Zm63.74,0a3.16,3.16,0,1,0-3.19-3.16A3.15,3.15,0,0,0,115.87,292Zm-84.68,0A3.16,3.16,0,1,0,28,288.84,3.15,3.15,0,0,0,31.19,292Zm105.62,24.32a3.16,3.16,0,1,0-3.18-3.16,3.15,3.15,0,0,0,3.18,3.16Zm-105.62,0A3.16,3.16,0,1,0,28,313.16a3.15,3.15,0,0,0,3.19,3.16Zm20.94,0a3.16,3.16,0,1,0-3.19-3.16,3.15,3.15,0,0,0,3.19,3.16Zm20.94,0a3.16,3.16,0,1,0-3.18-3.16,3.15,3.15,0,0,0,3.18,3.16Zm21.86,0a3.16,3.16,0,1,0-3.19-3.16,3.15,3.15,0,0,0,3.19,3.16Zm20.94,0a3.16,3.16,0,1,0-3.19-3.16,3.15,3.15,0,0,0,3.19,3.16Zm-42.8,22.14a3.16,3.16,0,1,0-3.18-3.16,3.15,3.15,0,0,0,3.18,3.16Zm42.8,0a3.16,3.16,0,1,0-3.19-3.16,3.15,3.15,0,0,0,3.19,3.16Zm-84.68,0A3.16,3.16,0,1,0,28,335.3a3.15,3.15,0,0,0,3.19,3.16Zm20.94,0a3.16,3.16,0,1,0-3.19-3.16,3.15,3.15,0,0,0,3.19,3.16Zm42.8,0a3.16,3.16,0,1,0-3.19-3.16,3.15,3.15,0,0,0,3.19,3.16Zm41.88,0a3.16,3.16,0,1,0-3.18-3.16,3.15,3.15,0,0,0,3.18,3.16Zm-20.94,22.13a3.16,3.16,0,1,0-3.19-3.16,3.15,3.15,0,0,0,3.19,3.16Zm-63.74,0a3.16,3.16,0,1,0-3.19-3.16,3.15,3.15,0,0,0,3.19,3.16Zm42.8,0a3.16,3.16,0,1,0-3.19-3.16,3.15,3.15,0,0,0,3.19,3.16Zm-21.86,0a3.16,3.16,0,1,0-3.18-3.16,3.15,3.15,0,0,0,3.18,3.16Zm63.74,0a3.16,3.16,0,1,0-3.18-3.16,3.15,3.15,0,0,0,3.18,3.16Zm-105.62,0A3.16,3.16,0,1,0,28,357.43a3.15,3.15,0,0,0,3.19,3.16Zm105.62,22.14a3.16,3.16,0,1,0-3.18-3.16,3.15,3.15,0,0,0,3.18,3.16Zm-20.94,0a3.16,3.16,0,1,0-3.19-3.16,3.15,3.15,0,0,0,3.19,3.16Zm-20.94,0a3.16,3.16,0,1,0-3.19-3.16,3.15,3.15,0,0,0,3.19,3.16Zm-21.86,0a3.16,3.16,0,1,0-3.18-3.16,3.15,3.15,0,0,0,3.18,3.16Zm-20.94,0a3.16,3.16,0,1,0-3.19-3.16,3.15,3.15,0,0,0,3.19,3.16Zm84.68,22.13a3.16,3.16,0,1,0-3.18-3.16,3.15,3.15,0,0,0,3.18,3.16Zm-20.94,0a3.16,3.16,0,1,0-3.19-3.16,3.15,3.15,0,0,0,3.19,3.16Zm-20.94,0a3.16,3.16,0,1,0-3.19-3.16,3.15,3.15,0,0,0,3.19,3.16Zm-21.86,0a3.16,3.16,0,1,0-3.18-3.16,3.15,3.15,0,0,0,3.18,3.16ZM136.81,427a3.16,3.16,0,1,0-3.18-3.16A3.15,3.15,0,0,0,136.81,427Zm-20.94,0a3.16,3.16,0,1,0-3.19-3.16A3.15,3.15,0,0,0,115.87,427Zm-20.94,0a3.16,3.16,0,1,0-3.19-3.16A3.15,3.15,0,0,0,94.93,427Z"
                transform="translate(0)" />
        </g>
    </g>
</svg>

<svg xmlns="http://www.w3.org/2000/svg" viewBox="0 0 222 496"><defs><style>

/* PAN */
/*.cls-1{fill:#ececec;}
.cls-2{fill:#1e50a9;}*/

/* PRI */
/*.cls-1{fill:#ececec;}
.cls-2{fill:#c00301;}*/

/* MOVIMIENTO */
.cls-1{fill:#ff8201;}
.cls-2{fill:#ececec;}

/* MORENA */
/*.cls-1{fill:#b92207;}
.cls-2{fill:#ececec;}*/

.cls-1,.cls-2{fill-rule:evenodd;}
</style></defs><title>forma-Superior-derecho</title><g id="Capa_2" data-name="Capa 2"><g id="Capa_1-2" data-name="Capa 1"><g id="forma-Superior-derecho"><path class="cls-1" d="M222,0H0V206.58a55.55,55.55,0,0,0,55.5,55.58A55.54,55.54,0,0,1,111,317.74v67.1A111.08,111.08,0,0,0,222,496Z"/><path class="cls-2" d="M136.81,181.32a3.16,3.16,0,1,0-3.18-3.16A3.17,3.17,0,0,0,136.81,181.32Zm-20.94,0a3.16,3.16,0,1,0-3.19-3.16A3.17,3.17,0,0,0,115.87,181.32Zm-20.94,0a3.16,3.16,0,1,0-3.19-3.16A3.16,3.16,0,0,0,94.93,181.32Zm-21.86,0a3.16,3.16,0,1,0-3.18-3.16A3.17,3.17,0,0,0,73.07,181.32Zm-20.94,0a3.16,3.16,0,1,0-3.19-3.16A3.17,3.17,0,0,0,52.13,181.32Zm-20.94,0A3.16,3.16,0,1,0,28,178.16,3.16,3.16,0,0,0,31.19,181.32Zm84.68,22.14a3.16,3.16,0,1,0-3.19-3.16A3.18,3.18,0,0,0,115.87,203.46Zm-42.8,0a3.16,3.16,0,1,0-3.18-3.16A3.18,3.18,0,0,0,73.07,203.46Zm63.74,0a3.16,3.16,0,1,0-3.18-3.16A3.18,3.18,0,0,0,136.81,203.46Zm-84.68,0a3.16,3.16,0,1,0-3.19-3.16A3.18,3.18,0,0,0,52.13,203.46Zm42.8,0a3.16,3.16,0,1,0-3.19-3.16A3.17,3.17,0,0,0,94.93,203.46Zm-63.74,0A3.16,3.16,0,1,0,28,200.3,3.17,3.17,0,0,0,31.19,203.46Zm105.62,22.13a3.16,3.16,0,1,0-3.18-3.16A3.17,3.17,0,0,0,136.81,225.59Zm-20.94,0a3.16,3.16,0,1,0-3.19-3.16A3.17,3.17,0,0,0,115.87,225.59Zm-20.94,0a3.16,3.16,0,1,0-3.19-3.16A3.16,3.16,0,0,0,94.93,225.59Zm-21.86,0a3.16,3.16,0,1,0-3.18-3.16A3.17,3.17,0,0,0,73.07,225.59Zm-20.94,0a3.16,3.16,0,1,0-3.19-3.16A3.17,3.17,0,0,0,52.13,225.59Zm-20.94,0A3.16,3.16,0,1,0,28,222.43,3.16,3.16,0,0,0,31.19,225.59Zm105.62,22.14a3.16,3.16,0,1,0-3.18-3.16A3.18,3.18,0,0,0,136.81,247.73Zm-20.94,0a3.16,3.16,0,1,0-3.19-3.16A3.18,3.18,0,0,0,115.87,247.73Zm-20.94,0a3.16,3.16,0,1,0-3.19-3.16A3.17,3.17,0,0,0,94.93,247.73Zm-21.86,0a3.16,3.16,0,1,0-3.18-3.16A3.18,3.18,0,0,0,73.07,247.73Zm-20.94,0a3.16,3.16,0,1,0-3.19-3.16A3.18,3.18,0,0,0,52.13,247.73Zm-20.94,0A3.16,3.16,0,1,0,28,244.57,3.17,3.17,0,0,0,31.19,247.73Zm105.62,22.13a3.16,3.16,0,1,0-3.18-3.16A3.17,3.17,0,0,0,136.81,269.86Zm-20.94,0a3.16,3.16,0,1,0-3.19-3.16A3.17,3.17,0,0,0,115.87,269.86Zm-20.94,0a3.16,3.16,0,1,0-3.19-3.16A3.16,3.16,0,0,0,94.93,269.86Zm-21.86,0a3.16,3.16,0,1,0-3.18-3.16A3.17,3.17,0,0,0,73.07,269.86Zm-20.94,0a3.16,3.16,0,1,0-3.19-3.16A3.17,3.17,0,0,0,52.13,269.86Zm-20.94,0A3.16,3.16,0,1,0,28,266.7,3.16,3.16,0,0,0,31.19,269.86ZM73.07,292a3.16,3.16,0,1,0-3.18-3.16A3.18,3.18,0,0,0,73.07,292Zm63.74,0a3.16,3.16,0,1,0-3.18-3.16A3.18,3.18,0,0,0,136.81,292Zm-41.88,0a3.16,3.16,0,1,0-3.19-3.16A3.17,3.17,0,0,0,94.93,292Zm-42.8,0a3.16,3.16,0,1,0-3.19-3.16A3.18,3.18,0,0,0,52.13,292Zm63.74,0a3.16,3.16,0,1,0-3.19-3.16A3.18,3.18,0,0,0,115.87,292Zm-84.68,0A3.16,3.16,0,1,0,28,288.84,3.17,3.17,0,0,0,31.19,292Zm105.62,24.32a3.16,3.16,0,1,0-3.18-3.16A3.17,3.17,0,0,0,136.81,316.32Zm-105.62,0A3.16,3.16,0,1,0,28,313.16,3.16,3.16,0,0,0,31.19,316.32Zm20.94,0a3.16,3.16,0,1,0-3.19-3.16A3.17,3.17,0,0,0,52.13,316.32Zm20.94,0a3.16,3.16,0,1,0-3.18-3.16A3.17,3.17,0,0,0,73.07,316.32Zm21.86,0a3.16,3.16,0,1,0-3.19-3.16A3.16,3.16,0,0,0,94.93,316.32Zm20.94,0a3.16,3.16,0,1,0-3.19-3.16A3.17,3.17,0,0,0,115.87,316.32Zm-42.8,22.14a3.16,3.16,0,1,0-3.18-3.16A3.18,3.18,0,0,0,73.07,338.46Zm42.8,0a3.16,3.16,0,1,0-3.19-3.16A3.18,3.18,0,0,0,115.87,338.46Zm-84.68,0A3.16,3.16,0,1,0,28,335.3,3.17,3.17,0,0,0,31.19,338.46Zm20.94,0a3.16,3.16,0,1,0-3.19-3.16A3.18,3.18,0,0,0,52.13,338.46Zm42.8,0a3.16,3.16,0,1,0-3.19-3.16A3.17,3.17,0,0,0,94.93,338.46Zm41.88,0a3.16,3.16,0,1,0-3.18-3.16A3.18,3.18,0,0,0,136.81,338.46Zm-20.94,22.13a3.16,3.16,0,1,0-3.19-3.16A3.17,3.17,0,0,0,115.87,360.59Zm-63.74,0a3.16,3.16,0,1,0-3.19-3.16A3.17,3.17,0,0,0,52.13,360.59Zm42.8,0a3.16,3.16,0,1,0-3.19-3.16A3.16,3.16,0,0,0,94.93,360.59Zm-21.86,0a3.16,3.16,0,1,0-3.18-3.16A3.17,3.17,0,0,0,73.07,360.59Zm63.74,0a3.16,3.16,0,1,0-3.18-3.16A3.17,3.17,0,0,0,136.81,360.59Zm-105.62,0A3.16,3.16,0,1,0,28,357.43,3.16,3.16,0,0,0,31.19,360.59Zm105.62,22.14a3.16,3.16,0,1,0-3.18-3.16A3.18,3.18,0,0,0,136.81,382.73Zm-20.94,0a3.16,3.16,0,1,0-3.19-3.16A3.18,3.18,0,0,0,115.87,382.73Zm-20.94,0a3.16,3.16,0,1,0-3.19-3.16A3.17,3.17,0,0,0,94.93,382.73Zm-21.86,0a3.16,3.16,0,1,0-3.18-3.16A3.18,3.18,0,0,0,73.07,382.73Zm-20.94,0a3.16,3.16,0,1,0-3.19-3.16A3.18,3.18,0,0,0,52.13,382.73Zm84.68,22.13a3.16,3.16,0,1,0-3.18-3.16A3.17,3.17,0,0,0,136.81,404.86Zm-20.94,0a3.16,3.16,0,1,0-3.19-3.16A3.17,3.17,0,0,0,115.87,404.86Zm-20.94,0a3.16,3.16,0,1,0-3.19-3.16A3.16,3.16,0,0,0,94.93,404.86Zm-21.86,0a3.16,3.16,0,1,0-3.18-3.16A3.17,3.17,0,0,0,73.07,404.86ZM136.81,427a3.16,3.16,0,1,0-3.18-3.16A3.18,3.18,0,0,0,136.81,427Zm-20.94,0a3.16,3.16,0,1,0-3.19-3.16A3.18,3.18,0,0,0,115.87,427Zm-20.94,0a3.16,3.16,0,1,0-3.19-3.16A3.17,3.17,0,0,0,94.93,427Z"/></g></g></g></svg>
